sprites/streets-v8/_svg/laundry-11.svg

<?xml version="1.0" encoding="UTF-8" standalone="no"?>
<svg
   xmlns:dc="http://purl.org/dc/elements/1.1/"
   xmlns:cc="http://creativecommons.org/ns#"
   xmlns:rdf="http://www.w3.org/1999/02/22-rdf-syntax-ns#"
   xmlns:svg="http://www.w3.org/2000/svg"
   xmlns="http://www.w3.org/2000/svg"
   id="svg2"
   width="19"
   height="19"
   viewBox="0 0 19 19"
   version="1.1">
  <metadata
     id="metadata14">
    <rdf:RDF>
      <cc:Work
         rdf:about="">
        <dc:format>image/svg+xml</dc:format>
        <dc:type
           rdf:resource="http://purl.org/dc/dcmitype/StillImage" />
      </cc:Work>
    </rdf:RDF>
  </metadata>
  <defs
     id="defs12" />
  <ellipse
     id="ellipse4"
     ry="9.5"
     rx="9.5"
     cy="9.5"
     cx="9.5"
     style="fill:#ffffff;stroke:none;" />
  <ellipse
     id="ellipse6"
     rx="8.5"
     ry="8.5"
     cy="9.5"
     cx="9.5"
     style="fill:#a9a199;stroke:none;" />
  <g
     id="g8"
     transform="translate(4,4)">
    <metadata     id="metadata27"><rdf:RDF><cc:Work         rdf:about=""><dc:format>image/svg+xml</dc:format><dc:type           rdf:resource="http://purl.org/dc/dcmitype/StillImage" /><dc:title /></cc:Work></rdf:RDF></metadata><defs     id="defs25" /><path     id="path3291"     d="M 5,0 3,2.5 1,2.5 1,11 10,11 10,0 8.6660156,0 Z M 6,1 7,1 7,2 6,2 Z M 8,1 9,1 9,2 8,2 Z m -3,2.6660156 1.2226562,0 L 8.5,6 8.5,7.2226562 6.2226562,9.7773438 5,9.7773438 2.5,7.2226562 2.5,6 Z M 3.5,6 3.5,7 5,8.5 6.2226562,8.5 7.5,7 7.5,6 Z"     style="fill:#ffffff;fill-opacity:1" />
  </g>
</svg>

<?xml version="1.0" encoding="utf-8"?>
<!-- Generator: Adobe Illustrator 17.1.0, SVG Export Plug-In . SVG Version: 6.00 Build 0)  -->
<!DOCTYPE svg PUBLIC "-//W3C//DTD SVG 1.1//EN" "http://www.w3.org/Graphics/SVG/1.1/DTD/svg11.dtd">
<svg version="1.1"
	 id="svg2" xmlns:svg="http://www.w3.org/2000/svg" xmlns:cc="http://creativecommons.org/ns#" xmlns:dc="http://purl.org/dc/elements/1.1/" xmlns:rdf="http://www.w3.org/1999/02/22-rdf-syntax-ns#"
	 xmlns="http://www.w3.org/2000/svg" xmlns:xlink="http://www.w3.org/1999/xlink" x="0px" y="0px" width="19px" height="19px"
	 viewBox="0 0 19 19" enable-background="new 0 0 19 19" xml:space="preserve">
<ellipse id="ellipse4" fill="#FFFFFF" cx="9.5" cy="9.5" rx="9.5" ry="9.5"/>
<ellipse id="ellipse6" fill="#A9A199" cx="9.5" cy="9.5" rx="8.5" ry="8.5"/>
<g id="g8" transform="translate(4,4)">
	<path id="path3291" fill="#FFFFFF" d="M5,0L3,2.5H1V11h9V0H8.7H5z M6,1h1v1H6V1z M8,1h1v1H8V1z M5,3.7h1.2L8.5,6v1.2L6.2,9.8H5
		L2.5,7.2V6L5,3.7z M3.5,6v1L5,8.5h1.2L7.5,7V6H3.5z"/>
</g>
</svg>
